src/main/webapp/scripts/pdfjs/v54530/web/images/toolbarButton-bookmark.svg

<svg fill="none" height="16" viewBox="0 0 16 16" width="16" xmlns="http://www.w3.org/2000/svg"><path d="m2 3.5c-.27579 0-.5.22421-.5.5v8c0 .2758.22421.5.5.5h12c.2758 0 .5-.2242.5-.5v-8c0-.27579-.2242-.5-.5-.5zm-2 .5c0-1.10421.895786-2 2-2h12c1.1042 0 2 .89579 2 2v8c0 1.1042-.8958 2-2 2h-12c-1.104214 0-2-.8958-2-2zm8.75 4.75h-1.5v-1.5h1.5zm-.74999-4.125c-2.08859 0-3.85265 1.31791-4.54842 3.15347l-.08398.22153.08398.22153c.69577 1.83557 2.45983 3.15347 4.54842 3.15347s3.85269-1.3179 4.54839-3.15347l.084-.22153-.084-.22153c-.6957-1.83556-2.4598-3.15347-4.54839-3.15347zm0 5.5c-1.46089 0-2.71493-.87045-3.28719-2.125.57226-1.25455 1.8263-2.125 3.28719-2.125s2.71489.87045 3.28719 2.125c-.5723 1.25455-1.8263 2.125-3.28719 2.125z" fill="#000"/></svg>

<svg width="16" height="16" viewBox="0 0 16 16" fill="none" xmlns="http://www.w3.org/2000/svg">
<path d="M2 3.5C1.72421 3.5 1.5 3.72421 1.5 4V12C1.5 12.2758 1.72421 12.5 2 12.5H14C14.2758 12.5 14.5 12.2758 14.5 12V4C14.5 3.72421 14.2758 3.5 14 3.5H2ZM0 4C0 2.89579 0.895786 2 2 2H14C15.1042 2 16 2.89579 16 4V12C16 13.1042 15.1042 14 14 14H2C0.895786 14 0 13.1042 0 12V4ZM8.75 8.75H7.25V7.25H8.75V8.75ZM8.00001 4.625C5.91142 4.625 4.14736 5.94291 3.45159 7.77847L3.36761 8L3.45159 8.22153C4.14736 10.0571 5.91142 11.375 8.00001 11.375C10.0886 11.375 11.8527 10.0571 12.5484 8.22153L12.6324 8L12.5484 7.77847C11.8527 5.94291 10.0886 4.625 8.00001 4.625ZM8.00001 10.125C6.53912 10.125 5.28508 9.25455 4.71282 8C5.28508 6.74545 6.53912 5.875 8.00001 5.875C9.4609 5.875 10.7149 6.74545 11.2872 8C10.7149 9.25455 9.4609 10.125 8.00001 10.125Z" fill="black"/>
</svg>
